X:315
T: WO ZUR FROHEN FEIERSTUNDE
N: F0543
O: Europa, Mitteleuropa, Deutschland
R: Studenten - Lied, Geselligkeit
M: 2/4
L: 1/8
K: F
 | c2AB | c2c2 | defe | edc2
F3F | A2c2 | f2a2 | g4
c2AB | c2c2 | defe | edc2
F3F | A2c2 | f2a2 | g4
c2cc | d2dd | ecde | f2z2
f2ff | f2ed | cBAG | F2z2
c2cc | d2dd | ecde | f2z2
f2ff | f2ed | cBAG | F2z2

